icons/communication/call-wave-down-24.svg

<svg width="24" height="24" viewBox="0 0 24 24" fill="none" xmlns="http://www.w3.org/2000/svg">
<path fill-rule="evenodd" clip-rule="evenodd" d="M21.0478 22C22.6784 22 24 20.6562 24 18.9983L24 17.9619C24 16.52 23.2722 15.1978 22.0973 14.3825C19.5291 12.6015 15.9559 11.5 12 11.5C8.04412 11.5 4.4707 12.6016 1.90249 14.3826C0.72755 15.198 1.33393e-06 16.52 1.33393e-06 17.962L0 18.9967C6.99482e-05 20.6546 1.32166 21.9984 2.95216 21.9984L4.78583 21.9985C6.1112 21.9984 7.18655 20.906 7.18536 19.5579L7.18459 18.1223C7.18459 18.0977 7.192 18.0756 7.20228 18.0596C7.21186 18.0449 7.22116 18.0392 7.22739 18.0367C8.63745 17.4814 10.2605 17.1586 12 17.1586C13.7392 17.1585 15.3616 17.4822 16.7709 18.0382C16.7771 18.0406 16.7865 18.0463 16.7962 18.0612C16.8064 18.0771 16.8138 18.0995 16.8138 18.1241L16.8131 19.425C16.8131 20.8693 17.8498 22 19.2126 22H21.0478ZM21.0478 20.4915C21.859 20.4915 22.5164 19.8231 22.5164 18.9983V17.9619C22.5164 17.0485 22.056 16.1803 21.2614 15.6287C18.9728 14.0417 15.7006 13.0085 12 13.0084C8.29932 13.0085 5.02718 14.0417 2.73858 15.6287C1.94396 16.1802 1.48357 17.0484 1.48357 17.9619V18.9967C1.48357 19.8215 2.14097 20.4899 2.95216 20.49L4.78583 20.4899C5.29252 20.49 5.70221 20.0724 5.70179 19.5591L5.70102 18.1229C5.70102 17.49 6.06833 16.8756 6.69132 16.63C8.2763 16.006 10.0816 15.6501 12 15.65C13.9186 15.6501 15.7231 16.0068 17.3073 16.6317C17.9302 16.8773 18.2974 17.4918 18.2974 18.1245L18.2966 19.425C18.2966 20.1138 18.7434 20.4915 19.2126 20.4915H21.0478Z" fill="black"/>
<path d="M19.5854 5.57501C19.7276 5.70749 19.9156 5.77961 20.1099 5.77618C20.3042 5.77276 20.4896 5.69404 20.627 5.55663C20.7644 5.41922 20.8431 5.23383 20.8466 5.03953C20.85 4.84523 20.7779 4.65718 20.6454 4.51501C19.5323 3.39914 18.2097 2.51418 16.7536 1.91096C15.2975 1.30775 13.7365 0.998172 12.1604 1.00001C8.84739 1.00001 5.84639 2.34401 3.67539 4.51501C3.54291 4.65718 3.47078 4.84523 3.47421 5.03953C3.47764 5.23383 3.55635 5.41922 3.69377 5.55663C3.83118 5.69404 4.01656 5.77275 4.21087 5.77618C4.40517 5.77961 4.59321 5.70749 4.73539 5.57501C5.70933 4.59846 6.8667 3.82407 8.14094 3.29635C9.41519 2.76863 10.7812 2.498 12.1604 2.50001C15.0604 2.50001 17.6844 3.67401 19.5854 5.57501ZM16.0504 9.11001C16.1926 9.24249 16.3806 9.31461 16.5749 9.31118C16.7692 9.30776 16.9546 9.22904 17.092 9.09163C17.2294 8.95422 17.3081 8.76883 17.3116 8.57453C17.315 8.38023 17.2429 8.19218 17.1104 8.05001C16.461 7.39913 15.6894 6.88296 14.8399 6.53116C13.9904 6.17936 13.0798 5.99885 12.1604 6.00001C11.2409 5.99885 10.3303 6.17936 9.48086 6.53116C8.63139 6.88296 7.85979 7.39913 7.21039 8.05001C7.07383 8.19152 6.99833 8.38101 7.00013 8.57766C7.00193 8.77431 7.08089 8.96238 7.22002 9.10137C7.35914 9.24036 7.54729 9.31915 7.74394 9.32077C7.94058 9.32238 8.13 9.24669 8.27139 9.11001C8.78164 8.59845 9.38801 8.19285 10.0556 7.91654C10.7232 7.64024 11.4389 7.49868 12.1614 7.50001C12.8836 7.49894 13.5988 7.64063 14.2661 7.91693C14.9333 8.19323 15.5404 8.59869 16.0504 9.11001Z" fill="black"/>
</svg>

<svg xmlns="http://www.w3.org/2000/svg" width="24" height="24"><path fill-rule="evenodd" d="M21.048 22C22.678 22 24 20.656 24 18.998v-1.036c0-1.442-.728-2.764-1.903-3.58C19.53 12.603 15.956 11.5 12 11.5c-3.956 0-7.53 1.102-10.098 2.883C.728 15.198 0 16.52 0 17.962v1.035c0 1.658 1.322 3.001 2.952 3.001h1.834c1.325 0 2.4-1.092 2.4-2.44l-.001-1.436c0-.024.007-.046.017-.062a.055.055 0 01.025-.023c1.41-.556 3.034-.878 4.773-.878 1.74 0 3.362.323 4.77.88a.055.055 0 01.026.022.12.12 0 01.018.063v1.301c0 1.444 1.036 2.575 2.399 2.575h1.835zm0-1.509a1.48 1.48 0 001.468-1.493v-1.036c0-.913-.46-1.782-1.255-2.333-2.288-1.587-5.56-2.62-9.261-2.62-3.7 0-6.973 1.033-9.261 2.62-.795.551-1.255 1.42-1.255 2.333v1.035a1.48 1.48 0 001.468 1.493h1.834a.923.923 0 00.916-.93L5.7 18.122c0-.633.367-1.247.99-1.493 1.585-.624 3.39-.98 5.309-.98s3.723.357 5.307.982c.623.245.99.86.99 1.492v1.301c0 .689.446 1.066.916 1.066h1.835z"/><path d="M19.585 5.575a.75.75 0 001.06-1.06A11.965 11.965 0 0012.16 1a11.965 11.965 0 00-8.485 3.515.75.75 0 001.06 1.06A10.465 10.465 0 0112.16 2.5c2.9 0 5.524 1.174 7.425 3.075zM16.05 9.11a.75.75 0 001.06-1.06A6.98 6.98 0 0012.16 6a6.98 6.98 0 00-4.95 2.05.75.75 0 001.061 1.06 5.48 5.48 0 013.89-1.61 5.48 5.48 0 013.89 1.61z"/></svg>
